X: 63
T:Oh Susanna
% Nottingham Music Database
S:via PR
M:2/4
L:1/4
K:G
G/4A/4|"G"B/2d/2 d3/4e/4|d/2B/2 G/2A/2|B/2B/2 A/2G/2|"D"A3/2G/4A/4|\
"G"B/2d/2 d3/4e/4|"G"d/2B/2 G/2A/2|"G"B/2B/2 "D7"A/2A/2|"G"G2::
"C"c c|e/2e/2 -e/2e/2|"G"d/2d/2 B/2G/2|"D7"A3/2G/4A/4|"G"B/2d/2 d3/4e/4|\
d/2B/2 G/2A/2|"G"B/2B/2 "D7"A/2A/2|"G"G2:|


